X: 255
T:Alma redemptoris mater / Ave regina celorum / Tu que genuisti / Gaude virgo
N: Derived from Jos2302-Alma_redemptoris_mater__Ave_regina_celorum.krn
C: Josquin des Prez
%%abc-version 2.0
%%abcx-abcm2ps-target-version 5.9.1 (29 Sep 2008)
%%abc-creator hum2abc beta
%%abcx-conversion-date 2019/02/12 16:15:51
%%abc-edited-by Jesse Rodin
%%abc-edited-by Jesse Rodin; Victoria Chang 2011/05/10
%%abcx-initial-encoding-date 2011/08/05/
%%humdrum-veritas 4116758922
%%humdrum-veritas-data 4066019864
%%linebreak <none>
%%barnumbers 0
L: 1/4
M: 3/1
Q: 1/2=120
%%staves [1 2 3 4]
V: 1 clef=treble
V: 2 clef=treble-8
V: 3 clef=treble-8
V: 4 clef=bass
K: C
[V:1] C3DEFG4^F2 | 
[V:2] c6B2A4 | 
[V:3] z12 | 
[V:4] z12 | 
[V:1] G4z4z2G2 | 
[V:2] B3GABc4B2 | 
[V:3] z12 | 
[V:4] z12 | 
[V:1] A2c4B2A4 | 
[V:2] c8z4 | 
[V:3] z12 | 
[V:4] z12 | 
[V:1] G2A3GE2F4 | 
[V:2] c8d4 | 
[V:3] z12 | 
[V:4] z12 | 
[V:1] E2G2G2C3B,C2 | 
[V:2] e4e4d2e2 | 
[V:3] z12 | 
[V:4] z12 | 
[V:1] D4E2F3EG2- | 
[V:2] f4e2d3cBA/G/ | 
[V:3] z12 | 
[V:4] z12 | 
[V:1] GFEDC2E2D4 | 
[V:2] A2G2AGc4B2 | 
[V:3] z12 | 
[V:4] z12 | 
[V:1] C12 | 
[V:2] c12 | 
[V:3] z12 | 
[V:4] z12 | 
[V:1] z12 | 
[V:2] z12 | 
[V:3] c6B2A4 | 
[V:4] C,3D,E,F,G,4^F,2 | 
[V:1] z12 | 
[V:2] z12 | 
[V:3] B3GABc4B2 | 
[V:4] G,4z4z2G,2 | 
[V:1] z12 | 
[V:2] z12 | 
[V:3] c4z4c4 | 
[V:4] A,2C4B,2A,4 | 
[V:1] z12 | 
[V:2] z12 | 
[V:3] d4e6d2 | 
[V:4] G,2F,G,2A,G,A,2E,F,2 | 
[V:1] z12 | 
[V:2] z12 | 
[V:3] e4d2e2f4 | 
[V:4] E,2G,2G,2C,2D,4 | 
[V:1] z12 | 
[V:2] z12 | 
[V:3] e2d3cBAG2AG | 
[V:4] E,2F,2G,3F,E,D,C,2- | 
[V:1] z12 | 
[V:2] z12 | 
[V:3] AGd3cc4B2 | 
[V:4] C,2B,,2C,4D,4 | 
[V:1] z4z2G2A2B2 | 
[V:2] z12 | 
[V:3] c12 | 
[V:4] C,8z4 | 
[V:1] c3BAGG4^F2 | 
[V:2] c6B2A4 | 
[V:3] z12 | 
[V:4] z12 | 
[V:1] G4C4D4 | 
[V:2] B2G2AGc4B2 | 
[V:3] z12 | 
[V:4] z12 | 
[V:1] E3FG2A4GF | 
[V:2] c4c4d4 | 
[V:3] z12 | 
[V:4] z12 | 
[V:1] E2G4A2B4 | 
[V:2] e6c2d2e2- | 
[V:3] z12 | 
[V:4] z4z4G,4 | 
[V:1] c4d8 | 
[V:2] edf3edcd4 | 
[V:3] z12 | 
[V:4] A,4B,8 | 
[V:1] e4c2d3cA2 | 
[V:2] c4z4z4 | 
[V:3] c6B2A4 | 
[V:4] C3B,A,G,G,4^F,2 | 
[V:1] G4F2E2D4 | 
[V:2] z4z4g4 | 
[V:3] B3GABc4B2 | 
[V:4] G,4z4G,4 | 
[V:1] C4z4c4 | 
[V:2] e2a4g4^f2 | 
[V:3] c12 | 
[V:4] A,12 | 
[V:1] B2A2c3BA2G2- | 
[V:2] g2c3de2A2B2 | 
[V:3] z4c4d4 | 
[V:4] G,2A,3G,E,2F,2G,2 | 
[V:1] G2C4G2A2G2- | 
[V:2] c4z2c2A2B2 | 
[V:3] e8d4 | 
[V:4] E,2A,3G,E,2F,2G,2 | 
[V:1] G2FED4A4 | 
[V:2] c3BAGd6 | 
[V:3] e4f8 | 
[V:4] C,4D,8 | 
[V:1] G4F2E2D4 | 
[V:2] B2c2A4z2G2- | 
[V:3] e3d/c/d2c4B2 | 
[V:4] E,4F,4G,4 | 
[V:1] C4z4z4 | 
[V:2] G2A3Gc4B2 | 
[V:3] c8f4 | 
[V:4] E,2F,3E,C,2D,4 | 
[V:1] z12 | 
[V:2] c2A4c2_B3A | 
[V:3] e2f3ec2d4 | 
[V:4] C,2D,3C,A,,2_B,,4 | 
[V:1] c12- | 
[V:2] G6c3def | 
[V:3] c12 | 
[V:4] C,12 | 
[V:1] c4B8 | 
[V:2] e2a2(3:2:4g4f2e2d4 | 
[V:3] z12 | 
[V:4] z12 | 
[V:1] c6B2A4 | 
[V:2] c3BAGg4f2 | 
[V:3] z12 | 
[V:4] z12 | 
[V:1] G4F2G2A4 | 
[V:2] g2a4g4f2 | 
[V:3] z12 | 
[V:4] z12 | 
[V:1] G2A3GE2F4 | 
[V:2] edf4e4d2 | 
[V:3] z12 | 
[V:4] z12 | 
[V:1] E8z4 | 
[V:2] e3fg2a2g2e2- | 
[V:3] z12 | 
[V:4] C12- | 
[V:1] z12 | 
[V:2] efg4fed4 | 
[V:3] z12 | 
[V:4] C4B,8 | 
[V:1] G8c4 | 
[V:2] c2e3fg4^f2 | 
[V:3] c12 | 
[V:4] C6B,2A,4 | 
[V:1] B4A8 | 
[V:2] g4z4c4 | 
[V:3] d4f8 | 
[V:4] G,4F,8 | 
[V:1] B2c3BG2A4 | 
[V:2] B2A2c2B2A4 | 
[V:3] e8d4 | 
[V:4] G,2A,2E,4F,4 | 
[V:1] G6FEF2ED | 
[V:2] B4c4d4 | 
[V:3] e8z4 | 
[V:4] E,4z4z4 | 
[V:1] C2D2E4F4 | 
[V:2] e2f2g2e4d2 | 
[V:3] z12 | 
[V:4] z12 | 
[V:1] E8z4 | 
[V:2] e3dc2B2A4 | 
[V:3] g8f4 | 
[V:4] C,8D,4 | 
[V:1] z12 | 
[V:2] G8A3G | 
[V:3] e2dcB2c3Bd2- | 
[V:4] E,8F,3E, | 
[V:1] z12 | 
[V:2] A2B4G4F2 | 
[V:3] dce3dc4B2 | 
[V:4] F,2G,4E,2D,4 | 
[V:1] G6G2G4 | 
[V:2] G8z4 | 
[V:3] c4z2c2B2c2 | 
[V:4] C,8z4 | 
[V:1] F4G4A4 | 
[V:2] c3defg4^f2 | 
[V:3] A4G4z4 | 
[V:4] z12 | 
[V:1] G4F2E3CD2 | 
[V:2] g4z4G4 | 
[V:3] z2G2A2c4B2 | 
[V:4] z12 | 
[V:1] E8c4 | 
[V:2] g8g4 | 
[V:3] c4z4c4 | 
[V:4] z12 | 
[V:1] B2d3cBAG4 | 
[V:2] G3AB8 | 
[V:3] d8e4 | 
[V:4] G,6G,2G,4 | 
[V:1] A8G4 | 
[V:2] c4f4edg2- | 
[V:3] f3ed2c2B4 | 
[V:4] F,8G,4 | 
[V:1] z2c4BAB4 | 
[V:2] g2^f2g8 | 
[V:3] c4d8 | 
[V:4] A,4G,8 | 
[V:1] c6B2A4 | 
[V:2] e4z4A4 | 
[V:3] c3BA2G2c2d2 | 
[V:4] A,6E,2F,4 | 
[V:1] G12- | 
[V:2] B6c4BA | 
[V:3] e12- | 
[V:4] E,12- | 
[V:1] G12 ||  
[V:2] B12 ||  
[V:3] e12 ||  
[V:4] E,12 ||  
[V:1] [M:2/1]z8 | 
[V:2] [M:2/1]c8- | 
[V:3] [M:2/1]z8 | 
[V:4] [M:2/1]z8 | 
[V:1] c8- | 
[V:2] c8 | 
[V:3] z8 | 
[V:4] z8 | 
[V:1] c4B4 | 
[V:2] e8 | 
[V:3] z8 | 
[V:4] z8 | 
[V:1] A8 | 
[V:2] f8 | 
[V:3] z8 | 
[V:4] z8 | 
[V:1] G8 | 
[V:2] g8- | 
[V:3] c8- | 
[V:4] C8- | 
[V:1] c8 | 
[V:2] g8 | 
[V:3] c4e4- | 
[V:4] C6B,2 | 
[V:1] c6BA | 
[V:2] z4c4 | 
[V:3] e4f4 | 
[V:4] A,8 | 
[V:1] B8 | 
[V:2] d2e4dc | 
[V:3] g8- | 
[V:4] G,6A,2 | 
[V:1] z8 | 
[V:2] d4e4 | 
[V:3] g8 | 
[V:4] B,4C4- | 
[V:1] z8 | 
[V:2] c4d4 | 
[V:3] z8 | 
[V:4] C4B,4 | 
[V:1] z8 | 
[V:2] e8 | 
[V:3] g8- | 
[V:4] C8 | 
[V:1] z8 | 
[V:2] z8 | 
[V:3] g8 | 
[V:4] B,4C4 | 
[V:1] z8 | 
[V:2] z2a2f2a2- | 
[V:3] f8- | 
[V:4] D6CB, | 
[V:1] z8 | 
[V:2] agfed4 | 
[V:3] f8 | 
[V:4] A,4B,4 | 
[V:1] z8 | 
[V:2] z2g2e2g2- | 
[V:3] e8- | 
[V:4] C6B,A, | 
[V:1] z4c4 | 
[V:2] gfedc4 | 
[V:3] e8 | 
[V:4] G,4A,4 | 
[V:1] d6cB | 
[V:2] z2f2d2f2- | 
[V:3] d8- | 
[V:4] _B,6A,G, | 
[V:1] A4B4 | 
[V:2] fedcB4 | 
[V:3] d8 | 
[V:4] F,4G,4 | 
[V:1] c6BA | 
[V:2] z2e2c2e2- | 
[V:3] c8- | 
[V:4] A,6G,F, | 
[V:1] G4A4 | 
[V:2] edcBA4 | 
[V:3] c8 | 
[V:4] E,4F,4 | 
[V:1] _B6AG | 
[V:2] z2d2B2d2- | 
[V:3] z8 | 
[V:4] G,6F,E, | 
[V:1] F2G2_B2A2- | 
[V:2] dcBAG2d2- | 
[V:3] z8 | 
[V:4] D,2G,4F,2 | 
[V:1] AGG4^F2 | 
[V:2] d2cBc4 | 
[V:3] z8 | 
[V:4] G,4A,4 | 
[V:1] G8 | 
[V:2] d3cd2e2- | 
[V:3] z8 | 
[V:4] G,8- | 
[V:1] z4d3c | 
[V:2] e2dcB3A | 
[V:3] z8 | 
[V:4] G,8 | 
[V:1] d2e4dc | 
[V:2] B2c2A4 | 
[V:3] z8 | 
[V:4] z8 | 
[V:1] B3AB2c2 | 
[V:2] G4z4 | 
[V:3] z8 | 
[V:4] G,3F,G,2A,2- | 
[V:1] A4G3F | 
[V:2] z8 | 
[V:3] z8 | 
[V:4] A,2G,F,E,3D, | 
[V:1] G2A4GF | 
[V:2] z8 | 
[V:3] z8 | 
[V:4] E,2F,2D,4 | 
[V:1] E3DE2F2 | 
[V:2] c8 | 
[V:3] z8 | 
[V:4] C,8 | 
[V:1] D4C4 | 
[V:2] B4c4 | 
[V:3] z8 | 
[V:4] z8 | 
[V:1] z8 | 
[V:2] A8 | 
[V:3] c8 | 
[V:4] z8 | 
[V:1] z8 | 
[V:2] G2d2e2g2- | 
[V:3] B4c4 | 
[V:4] z4C,4 | 
[V:1] z4D4 | 
[V:2] g2^fe^f4 | 
[V:3] A8 | 
[V:4] D,8 | 
[V:1] B,2C2B,2C2- | 
[V:2] g8 | 
[V:3] G8- | 
[V:4] E,8- | 
[V:1] C2B,2C4 | 
[V:2] e6dc | 
[V:3] G8 | 
[V:4] E,8 | 
[V:1] G8 | 
[V:2] B2c2B2c2- | 
[V:3] z8 | 
[V:4] E,8- | 
[V:1] G6FE | 
[V:2] c2B2c4 | 
[V:3] G8 | 
[V:4] E,8 | 
[V:1] F8 | 
[V:2] d8 | 
[V:3] A8 | 
[V:4] D,8 | 
[V:1] G8 | 
[V:2] G8 | 
[V:3] B4c4- | 
[V:4] E,8 | 
[V:1] C4F4- | 
[V:2] A6G2 | 
[V:3] c4c4 | 
[V:4] F,6E,2 | 
[V:1] F2EFG2A2- | 
[V:2] A2B2c4 | 
[V:3] d4e4 | 
[V:4] D,4C,4 | 
[V:1] AGFED4 | 
[V:2] A8 | 
[V:3] f8 | 
[V:4] D,8 | 
[V:1] C2c3BA2 | 
[V:2] c8 | 
[V:3] e4c4 | 
[V:4] A,,8 | 
[V:1] G2F4ED | 
[V:2] _B6A2 | 
[V:3] d8 | 
[V:4] _B,,8 | 
[V:1] !fermata!E8 | 
[V:2] !fermata!G8 | 
[V:3] !fermata!c8 | 
[V:4] !fermata!C,8 | 
[V:1] z8 | 
[V:2] c6d2 | 
[V:3] z8 | 
[V:4] C8 | 
[V:1] z8 | 
[V:2] e2f2g2a2 | 
[V:3] z8 | 
[V:4] C6B,A, | 
[V:1] z8 | 
[V:2] d2g3fed | 
[V:3] z8 | 
[V:4] B,4G,4 | 
[V:1] c8- | 
[V:2] c4z4 | 
[V:3] z8 | 
[V:4] A,4B,2C2- | 
[V:1] c6BA | 
[V:2] z2c3def | 
[V:3] z8 | 
[V:4] CB,A,G,A,4 | 
[V:1] B6c2- | 
[V:2] g3feda2- | 
[V:3] z8 | 
[V:4] G,4z4 | 
[V:1] cBAGA4 | 
[V:2] a2g4^f2 | 
[V:3] z8 | 
[V:4] z8 | 
[V:1] G8 | 
[V:2] g6fe | 
[V:3] z8 | 
[V:4] z4G,4- | 
[V:1] z8 | 
[V:2] d6f2- | 
[V:3] z8 | 
[V:4] G,2F,E,D,4- | 
[V:1] z8 | 
[V:2] f2edc2d2 | 
[V:3] z8 | 
[V:4] D,2F,4E,D, | 
[V:1] z8 | 
[V:2] e2c4B2 | 
[V:3] z8 | 
[V:4] C,2E,2D,4 | 
[V:1] z4G4- | 
[V:2] c8 | 
[V:3] z8 | 
[V:4] C,8 | 
[V:1] G2FED2E2- | 
[V:2] z8 | 
[V:3] z8 | 
[V:4] G,8 | 
[V:1] E2F2E2F2- | 
[V:2] z8 | 
[V:3] z8 | 
[V:4] A,8 | 
[V:1] FEDCD4 | 
[V:2] z8 | 
[V:3] z8 | 
[V:4] B,8 | 
[V:1] C4z4 | 
[V:2] e4d2e2- | 
[V:3] z8 | 
[V:4] C4B,2C2- | 
[V:1] G8 | 
[V:2] e2dcd2e2- | 
[V:3] z8 | 
[V:4] C2B,A,B,2C2- | 
[V:1] A8 | 
[V:2] edg4^f2 | 
[V:3] c8 | 
[V:4] CB,A,G,A,4 | 
[V:1] B4A2B2- | 
[V:2] g4z2G2- | 
[V:3] d8 | 
[V:4] G,4z4 | 
[V:1] B2c2B2c2- | 
[V:2] G2A2G2A2- | 
[V:3] e8 | 
[V:4] z8 | 
[V:1] c2B2A4 | 
[V:2] A2G2d4 | 
[V:3] e4f4 | 
[V:4] z8 | 
[V:1] G4z4 | 
[V:2] G3AB2c2- | 
[V:3] g4e4- | 
[V:4] G,4G,2A,2- | 
[V:1] z8 | 
[V:2] cBAGA4 | 
[V:3] e4d4 | 
[V:4] A,G,F,E,F,4 | 
[V:1] G4G2A2- | 
[V:2] z2e3df2- | 
[V:3] e4z4 | 
[V:4] E,4z4 | 
[V:1] AGFEF4 | 
[V:2] fedcd4 | 
[V:3] z8 | 
[V:4] z8 | 
[V:1] E4z4 | 
[V:2] z2GABcd2- | 
[V:3] z8 | 
[V:4] E,6F,2- | 
[V:1] z8 | 
[V:2] d2c4B2 | 
[V:3] z8 | 
[V:4] F,E,D,C,D,4 | 
[V:1] G3ABcd2- | 
[V:2] cdefg2f2- | 
[V:3] z8 | 
[V:4] C,4z4 | 
[V:1] d2c4B2 | 
[V:2] f2e2d4 | 
[V:3] z8 | 
[V:4] z8 | 
[V:1] [M:3/1](3:2:1c12- | 
[V:2] [M:3/1](3:2:2c8e4- | 
[V:3] [M:3/1](3:2:1g12- | 
[V:4] [M:3/1](3:2:1C,12- | 
[V:1] (3:2:2c4A8 | 
[V:2] (3:2:2e4d8 | 
[V:3] (3:2:2g4f8 | 
[V:4] (3:2:2C,4D,8 | 
[V:1] (3:2:2G8G4 | 
[V:2] [M:2/1]G8 | 
[V:3] (3:2:2e8c4- | 
[V:4] [M:2/1]E,8 | 
[V:1] (3A4F4A4 | 
[V:2] z4A4 | 
[V:3] (3:2:2c4d8 | 
[V:4] F,8 | 
[V:1] (3:2:2G8G4 | 
[V:2] [M:3/1](3:2:2B8c4- | 
[V:3] [M:2/1]e8 | 
[V:4] [M:3/1](3:2:2E,8C,4- | 
[V:1] (3:2:2E4F8 | 
[V:2] (3:2:2c4A8 | 
[V:3] z8 | 
[V:4] (3:2:2C,4D,8 | 
[V:1] [M:2/1]G4z2G2 | 
[V:2] [M:2/1]G8 | 
[V:3] z4e4 | 
[V:4] [M:2/1]E,8 | 
[V:1] A2B2c2d2- | 
[V:2] z8 | 
[V:3] d4e2f2- | 
[V:4] z8 | 
[V:1] d2c4B2 | 
[V:2] z8 | 
[V:3] fedcd4 | 
[V:4] z8 | 
[V:1] c4G4 | 
[V:2] z4e4 | 
[V:3] c8 | 
[V:4] z8 | 
[V:1] F4G4 | 
[V:2] d4e4 | 
[V:3] z8 | 
[V:4] z4G,4 | 
[V:1] C2c4B2 | 
[V:2] f3ed4 | 
[V:3] z8 | 
[V:4] F,4G,4 | 
[V:1] c2e2d2e2 | 
[V:2] c4z4 | 
[V:3] z2c2B2G2 | 
[V:4] C,4G,4 | 
[V:1] fedcB2g2- | 
[V:2] z4d4 | 
[V:3] A4G4- | 
[V:4] F,4G,4 | 
[V:1] gfe2d3c/B/ | 
[V:2] c4B2G2 | 
[V:3] G2g3fed | 
[V:4] C,4G,4 | 
[V:1] AGc4B2 | 
[V:2] A4G4 | 
[V:3] f3ed4 | 
[V:4] F,4G,4 | 
[V:1] [M:3/1](3:2:2c8z4 | 
[V:2] [M:3/1](3G4c6d2 | 
[V:3] c8 | 
[V:4] C,8 | 
[V:1] (3c6B2A4 | 
[V:2] (3:2:2e8f4 | 
[V:3] z8 | 
[V:4] [M:3/1](3:2:2C,8D,4 | 
[V:1] (3:2:2G4A8 | 
[V:2] (3e4A6B2 | 
[V:3] [M:3/1](3:2:2c8d4 | 
[V:4] (3E,4F,6G,2 | 
[V:1] (3G4z4d4 | 
[V:2] (3c4d4B4 | 
[V:3] (3:2:2e4f8 | 
[V:4] (3:2:2E,4D,8 | 
[V:1] (3:2:2e4f8 | 
[V:2] (3c4A4B4 | 
[V:3] (3e4d6c2 | 
[V:4] (3C,4D,4B,,4 | 
[V:1] (3e4d6c2 | 
[V:2] (3:2:2G4d8 | 
[V:3] (3:2:2g4f8 | 
[V:4] (3C,4D,4B,,4 | 
[V:1] (3:2:2c8B4 | 
[V:2] (3G6A2B4 | 
[V:3] (3:2:2e4d8 | 
[V:4] (3:2:2C,4G,8 | 
[V:1] (3:2:1c12- | 
[V:2] (3G4A6G2 | 
[V:3] (3:2:1c12- | 
[V:4] (3:2:1C,12- | 
[V:1] (3:2:1c12 |]  
[V:2] (3:2:1G12 & (3:2:1g12 |]  
[V:3] (3:2:1c12 |]  
[V:4] (3:2:1C,12 |]  



